!!!OTL: Captain Burke
!!!ONM: 54.
**kern
*clefG2
!Modal -- Conklin/Pearce 
*k[]
*C:
*M4/4
*MM80
{4e
=1
4g
8d
8d
4e
8f
8f
=2
4g
4d
4e}
{(8e
8f)
=3
4g
4ee
4dd
(8cc
8b)
=4
2.cc}
{(8cc
8dd)
=5
4ee
8b
8b
4cc
(8g
8a)
=6
4b-
4g
4a}
{8g
8f
=7
4g
(8f
8e)
4c
4c
=8
2.c}
==
*-
!!!CNT: Folksongs of Maritime Canada
!!!MRD: 1928///-1932///
!!!OCL: Helen Creighton
!!!YOR: Songs and Ballads from Nova Scotia
!!!PPR: J.M. Dent & Sons, Limited
!!!PPP: Toronto, Canada
!!!PDT: 1932///
!!!reprint: Dover Publications, 1992: ISBN 0-486-21703-5
!!!ENC1: Craig Stuart Sapp (music and bibliographic data)                       
!!!ENC2: Marcus Pearce (phrase markings and key designations)                   
!!!ENC3: Darrell Conklin (phrase markings and key designations)   
!!!END: 2002/04/10/
!!!EEV: 2004/06/05
!!!MPN: Mr. Richard Hartlan
!!!PPG: 109
!!!EFL: 55/152
!!!ARE: Canada; Nova Scotia
!!!verses: 9
!!!VTS: 1422937332
